X:1
T:Title
%%score 1 { 2 | 3 }
L:1/8
Q:1/4=85
M:4/4
K:Eb
V:1 treble nm="Grand Piano, Soprano"
V:2 bass nm="Choir Pad, Down by the Fountain"
V:3 bass 
V:1
 E[EF] [EG]<[GB] [GB]>[Ac] [GB]<[EG] | [EF]E [Ec]<[Ee] [Ee]>[Ec] [EB]2- | %2
w: By~A.~Joel~Bond,~1909 * * * * * * *||
 [EB]2 [GB]2 [GB]>[GB] [Ac][GB] | [EG]E [DF]6 | E[EF] [EG]<[GB] [GB]>[Ac] [GB][EG] | %5
w: |||
 [EF]E [Ec]<[Ee] [Ee]>[Ec] [EB]2- | [EB]2 [Ec]2 [Ee]>[Ec] [EB][EG] | [DF][DG] [B,E]6 | %8
w: |||
 z2 [GB]2 [Ge]>[Ac] [GB][EG] | E[EF] [EG]2 [EA]2 [EB]2- | [EB]2 [Ec]2 [Ee]>[Ac] [GB][EG] | %11
w: |||
 [EF]E [DF]2 [EG]2 [DF]2 | E[EF] [EG]<[GB] [GB]>[Gc] [GB]2 | [EG][DF]E[Ee] [Ee]>[Ac] [GB]2- | %14
w: |||
 [GB]2 [Ac]2 [Ae]>[Ac] [GB][EG] | [DF][DG] [B,E]6- | [B,E]2 z2 z4 |] %17
w: |||
V:2
 G,A, B,<E E>E E<B, | A,G, A,<A, A,>A, G,2- | G,2[K:treble] E2 E>E EE | B,G, B,4 A,2 | %4
 G,A, B,<[K:treble]E E>E EB, | A,G, A,<A, A,>A, G,2- | G,2 A,2 C>A, G,B, | A,B, G,6 | %8
 z2 B,2 B,>E EB, | G,A, B,2 B,2 B,2- | B,2 A,2[K:treble] C>E EB, | A,[K:bass]G, B,2 B,2 B,A, | %12
 G,A, B,<[K:treble]E E>E E2 | B,[K:bass]B,B,B, C>E[K:treble] E2- | E2 E2 C>E E[K:bass]B, | %15
 A,B, G,6- | G,2 z2 z4 |] %17
V:3
 E,E, E,<E, E,>E, E,<E, | E,E, A,,<C, C,>A,, E,2- | E,2 E,2 E,>E, E,E, | E,E, B,,6 | %4
 E,E, E,<E, E,>E, E,E, | E,E, A,,<C, C,>A,, E,2- | E,2 A,,2 A,,>A,, B,,B,, | B,,B,, E,6 | %8
 z2 E,2 E,>E, E,E, | E,E, E,2 F,2 G,2- | G,2 z2 A,>A, E,E, | E,E, B,,2 B,,2 B,,2 | %12
 E,E, E,<E, E,>E, E,2 | E,A,G,G, A,>A, E,2- | E,2 A,2 A,>A, E,E, | B,,B,, E,6- | E,2 z2 z4 |] %17

